public/LeftCloudBg.svg

<svg width='288' height='241' viewBox='0 0 288 241' fill='none' xmlns='http://www.w3.org/2000/svg'><path d='M287.556 196.334C287.556 163.828 264.247 125.154 235.307 109.302C224.367 68.7702 194.833 28.23 160.01 9.85599C143.647 1.22099 128.482 -1.21186 115.832 1.5641L115.823 1.50182L90.761 7.12432C90.761 7.12432 74.9644 27.0305 73.0089 32.2151C67.5126 28.4396 59.5474 24.3853 54.0428 25.3766L27.1738 30.4954C27.1738 30.4954 44.5861 136.198 73.9759 151.706C86.4877 158.305 245.483 239.3 245.483 239.3L263.488 233.429L263.426 233.405C277.947 230.442 287.556 217.19 287.556 196.334Z' fill='url(#paint0_linear_9_79072)'/><path d='M214.612 115.4C203.039 74.8681 171.79 34.328 134.947 15.954C98.1036 -2.42004 66.8581 6.96136 55.2807 35.9453C24.6637 21.2589 0 35.3358 0 67.8421C0 100.716 25.2096 139.933 56.3074 155.44C69.5427 162.042 200.353 227.274 213.588 233.876C244.683 249.382 269.893 235.305 269.893 202.435C269.893 169.925 245.228 131.252 214.612 115.4Z' fill='url(#paint1_linear_9_79072)'/><defs><linearGradient id='paint0_linear_9_79072' x1='80.5521' y1='-120.135' x2='195.802' y2='95.835' gradientUnits='userSpaceOnUse'><stop stop-color='white'/><stop offset='1' stop-color='#B6D4FF'/></linearGradient><linearGradient id='paint1_linear_9_79072' x1='134.946' y1='6.51172' x2='134.946' y2='240.181' gradientUnits='userSpaceOnUse'><stop stop-color='white'/><stop offset='1' stop-color='#B6D4FF'/></linearGradient></defs></svg>

<svg xmlns="http://www.w3.org/2000/svg" width="288" height="241" fill="none" viewBox="0 0 288 241"><path fill="url(#a)" d="M287.556 196.334c0-32.506-23.309-71.18-52.249-87.032-10.94-40.532-40.474-81.072-75.297-99.446-16.363-8.635-31.528-11.068-44.178-8.292l-.009-.062-25.062 5.622S74.964 27.031 73.009 32.215c-5.496-3.775-13.462-7.83-18.966-6.838l-26.87 5.118s17.413 105.703 46.803 121.211c12.512 6.599 171.507 87.594 171.507 87.594l18.005-5.871-.062-.024c14.521-2.963 24.13-16.215 24.13-37.071"/><path fill="url(#b)" d="M214.612 115.4c-11.573-40.532-42.822-81.072-79.665-99.446S66.858 6.961 55.281 35.945C24.664 21.26 0 35.335 0 67.842c0 32.874 25.21 72.091 56.307 87.598 13.236 6.602 144.046 71.834 157.281 78.436 31.095 15.506 56.305 1.429 56.305-31.441 0-32.51-24.665-71.183-55.281-87.035"/><defs><linearGradient id="a" x1="80.552" x2="195.802" y1="-120.135" y2="95.835" gradientUnits="userSpaceOnUse"><stop stop-color="#fff"/><stop offset="1" stop-color="#b6d4ff"/></linearGradient><linearGradient id="b" x1="134.946" x2="134.946" y1="6.512" y2="240.181" gradientUnits="userSpaceOnUse"><stop stop-color="#fff"/><stop offset="1" stop-color="#b6d4ff"/></linearGradient></defs></svg>
